X: 1
T: Harmonics Song
C: Huh Lhim
K: C
L: 1/16
Q: 1/4=70
V:1 clef="treble"
V:2 clef="bass" middle="D"
V:1
{A,_A,}G,=A,CG | z [A,DF][G,CE]2 [G,CE]2[G,B,D]2 [GCE]2[G,B,D][G,CE] z [G,CE] z {^C}[A,DF]- |
[A,DF][A,DF][A,^CE]2 [A,DF]2[A,CE]2 {^B,}[^G,CF]2{B,}[G,CF]2 z [=CE]2> |C4E2 G4 {DC}B,2CD- DE2> |
[E,C]2[F,D][G,E][A,F] [B,G][CA][DB][Ec]- [Ec]4 {/D}EDC2 |[F,A,CE]4 [F,A,B,E]4 [E,A,B,D]8 | [CEG]4 [B,EG]4 [B,DG]8 |
c2Bc- cF2> B4AB- BEFG | [B,EG]4 [_C_E_A]4 [=C=E=A]4 [_ABe]4 |
[DGc]8 z Gc[Af]- [Af][Ge]2> | c4BA- AG2> [_EG_B]8 [B,DG]4 | F2=ED- DC2G [G,C]4 G,A,CG |
V:2
z4 | C,2>C2 z2> C2 z4 C z CB,- |
B,2>B,2 z2> B,2 [E,D]8 |[A,E]16 |
F,8> [E,8g] | D,4 G,4 C,8 | [DFA]4 [G,F]4 [CEA]8 |
[AE'F']8 [GD']8 | [G,F]4 [_DF]4 [=D^F]4 [=FBe]4 |
[CEA]8 z8 | [CAF']8 [_DF_c]4 [CEA]4 | [D,FGc]8 [E,C]8 |
